src/icons/svg-colors/prod-5.svg

<svg width="127" height="80" viewBox="0 0 127 80" fill="none" xmlns="http://www.w3.org/2000/svg">
<path d="M0 37.582L9.84375 36.5625C10.125 38.7891 10.957 40.5586 12.3398 41.8711C13.7227 43.1602 15.3164 43.8047 17.1211 43.8047C19.1836 43.8047 20.9297 42.9727 22.3594 41.3086C23.7891 39.6211 24.5039 37.0898 24.5039 33.7148C24.5039 30.5508 23.7891 28.1836 22.3594 26.6133C20.9531 25.0195 19.1133 24.2227 16.8398 24.2227C14.0039 24.2227 11.4609 25.4766 9.21094 27.9844L1.19531 26.8242L6.25781 0H32.3789V9.24609H13.7461L12.1992 18C14.4023 16.8984 16.6523 16.3477 18.9492 16.3477C23.332 16.3477 27.0469 17.9414 30.0938 21.1289C33.1406 24.3164 34.6641 28.4531 34.6641 33.5391C34.6641 37.7812 33.4336 41.5664 30.9727 44.8945C27.6211 49.4414 22.9688 51.7148 17.0156 51.7148C12.2578 51.7148 8.37891 50.4375 5.37891 47.8828C2.37891 45.3281 0.585938 41.8945 0 37.582Z" fill="#0BA14B"/>
<path fill-rule="evenodd" clip-rule="evenodd" d="M115.009 12.9544C115.673 11.2357 116 9.86383 116 9C116 5.13401 112.866 2 109 2C105.134 2 102 5.13401 102 9C102 9.83914 102.343 11.1942 103.047 12.9192C103.728 14.5876 104.665 16.4068 105.661 18.0994C106.658 19.7934 107.686 21.3111 108.531 22.3821C108.738 22.6449 108.926 22.8701 109.093 23.0582C109.27 22.8702 109.472 22.6391 109.695 22.3628C110.546 21.3116 111.549 19.8113 112.513 18.1225C113.474 16.4383 114.365 14.6223 115.009 12.9544ZM109 25.5C111 25.5 118 13.9706 118 9C118 4.02944 113.971 0 109 0C104.029 0 100 4.02944 100 9C100 13.9706 107.5 25.5 109 25.5Z" fill="#0BA14B"/>
<path fill-rule="evenodd" clip-rule="evenodd" d="M109 10C109.552 10 110 9.55228 110 9C110 8.44772 109.552 8 109 8C108.448 8 108 8.44772 108 9C108 9.55228 108.448 10 109 10ZM109 12C110.657 12 112 10.6569 112 9C112 7.34315 110.657 6 109 6C107.343 6 106 7.34315 106 9C106 10.6569 107.343 12 109 12Z" fill="#0BA14B"/>
<path fill-rule="evenodd" clip-rule="evenodd" d="M53.5528 40.6584C54.061 39.642 55.0998 39 56.2361 39H77.8513C78.9183 39 79.905 39.5667 80.4426 40.4884L86.5913 51.0291C86.859 51.4879 87 52.0095 87 52.5407V75C87 77.7614 84.7614 80 82 80H53C50.2386 80 48 77.7614 48 75V52.4721C48 52.0064 48.1084 51.5471 48.3167 51.1305L53.5528 40.6584ZM56.2361 41C55.8573 41 55.511 41.214 55.3416 41.5528L50.1056 52.0249C50.0361 52.1638 50 52.3169 50 52.4721V75C50 76.6569 51.3431 78 53 78H82C83.6569 78 85 76.6569 85 75V52.5407C85 52.3636 84.953 52.1898 84.8638 52.0368L78.715 41.4961C78.5358 41.1889 78.2069 41 77.8513 41H56.2361Z" fill="#0BA14B"/>
<path fill-rule="evenodd" clip-rule="evenodd" d="M86 53H49V51H86V53Z" fill="#0BA14B"/>
<path fill-rule="evenodd" clip-rule="evenodd" d="M69.9487 39.6838L74 51.8377V58C74 59.6569 72.6569 61 71 61H64C62.3431 61 61 59.6569 61 58V51.8769L64.0299 39.7575L65.9701 40.2425L63 52.1231V58C63 58.5523 63.4477 59 64 59H71C71.5523 59 72 58.5523 72 58V52.1623L68.0513 40.3162L69.9487 39.6838Z" fill="#0BA14B"/>
<path fill-rule="evenodd" clip-rule="evenodd" d="M79.5 26C79.0236 26 78.5718 26.0946 78.1605 26.2652L77.3944 24.4177C78.0443 24.1482 78.7561 24 79.5 24H81.375V26H79.5ZM88.875 26H85.125V24H88.875V26ZM96.375 26H92.625V24H96.375V26ZM102 26H100.125V24H102C102.552 24 103 24.4477 103 25C103 25.5523 102.552 26 102 26ZM76.2652 28.1605C76.0946 28.5718 76 29.0236 76 29.5C76 29.9764 76.0946 30.4282 76.2652 30.8395L74.4177 31.6056C74.1482 30.9557 74 30.2439 74 29.5C74 28.7561 74.1482 28.0443 74.4177 27.3944L76.2652 28.1605ZM78.1605 32.7348C78.5718 32.9054 79.0236 33 79.5 33H81.5V35H79.5C78.7561 35 78.0443 34.8518 77.3944 34.5823L78.1605 32.7348ZM85.5 33H89.5V35H85.5V33ZM93.5 33H97.5V35H93.5V33ZM101.5 33H103.5C104.277 33 105.045 33.0377 105.803 33.1115L105.609 35.1021C104.916 35.0346 104.212 35 103.5 35H101.5V33ZM110.324 34.0063C111.81 34.4567 113.235 35.0504 114.58 35.7713L113.636 37.5343C112.405 36.875 111.103 36.3321 109.744 35.9203L110.324 34.0063ZM118.409 38.3339C119.598 39.3108 120.689 40.4021 121.666 41.5911L120.121 42.8608C119.227 41.7724 118.228 40.7734 117.139 39.8793L118.409 38.3339ZM124.229 45.4195C124.95 46.7653 125.543 48.1897 125.994 49.6764L124.08 50.2563C123.668 48.8972 123.125 47.5948 122.466 46.3638L124.229 45.4195ZM126.889 54.1969C126.962 54.9549 127 55.7232 127 56.5C127 57.2768 126.962 58.0451 126.889 58.8031L124.898 58.6094C124.965 57.9157 125 57.212 125 56.5C125 55.788 124.965 55.0843 124.898 54.3906L126.889 54.1969ZM125.994 63.3236C125.543 64.8103 124.95 66.2347 124.229 67.5805L122.466 66.6362C123.125 65.4052 123.668 64.1028 124.08 62.7437L125.994 63.3236ZM121.666 71.4089C120.689 72.5979 119.598 73.6892 118.409 74.6661L117.139 73.1207C118.228 72.2266 119.227 71.2276 120.121 70.1392L121.666 71.4089ZM114.58 77.2287C113.235 77.9496 111.81 78.5433 110.324 78.9937L109.744 77.0797C111.103 76.6679 112.405 76.125 113.636 75.4657L114.58 77.2287ZM105.803 79.8885C105.045 79.9623 104.277 80 103.5 80H101.938V78H103.5C104.212 78 104.916 77.9654 105.609 77.8979L105.803 79.8885ZM90 79C90 78.4477 90.4477 78 91 78H92.5625V80H91C90.4477 80 90 79.5523 90 79ZM98.8125 80H95.6875V78H98.8125V80Z" fill="#0BA14B"/>
</svg>

<svg width="127" height="80" viewBox="0 0 127 80" fill="none" xmlns="http://www.w3.org/2000/svg">
    <path d="M0 37.582l9.844-1.02c.281 2.227 1.113 3.997 2.496 5.31 1.383 1.288 2.976 1.933 4.781 1.933 2.063 0 3.809-.832 5.238-2.496 1.43-1.688 2.145-4.22 2.145-7.594 0-3.164-.715-5.531-2.145-7.102-1.406-1.593-3.246-2.39-5.52-2.39-2.835 0-5.378 1.254-7.628 3.761l-8.016-1.16L6.258 0h26.12v9.246H13.747L12.2 18c2.203-1.102 4.453-1.652 6.75-1.652 4.383 0 8.098 1.593 11.145 4.78 3.047 3.188 4.57 7.325 4.57 12.411 0 4.242-1.23 8.027-3.691 11.355-3.352 4.547-8.004 6.82-13.957 6.82-4.758 0-8.637-1.276-11.637-3.831-3-2.555-4.793-5.989-5.379-10.301z" fill="#0BA14B"/>
    <path fill-rule="evenodd" clip-rule="evenodd" d="M115.009 12.954c.664-1.718.991-3.09.991-3.954a7 7 0 1 0-14 0c0 .84.343 2.194 1.047 3.92.681 1.668 1.618 3.487 2.614 5.18.997 1.693 2.025 3.211 2.87 4.282.207.263.395.488.562.676.177-.188.379-.419.602-.695.851-1.051 1.854-2.552 2.818-4.24.961-1.685 1.852-3.5 2.496-5.169zM109 25.5c2 0 9-11.53 9-16.5a9 9 0 0 0-9-9 9 9 0 0 0-9 9c0 4.97 7.5 16.5 9 16.5z" fill="#0BA14B"/>
    <path fill-rule="evenodd" clip-rule="evenodd" d="M109 10a1 1 0 1 0 0-2 1 1 0 0 0 0 2zm0 2a3 3 0 1 0 0-6 3 3 0 0 0 0 6z" fill="#0BA14B"/>
    <path fill-rule="evenodd" clip-rule="evenodd" d="M53.553 40.658A3 3 0 0 1 56.236 39h21.615a3 3 0 0 1 2.592 1.488L86.59 51.03A3 3 0 0 1 87 52.541V75a5 5 0 0 1-5 5H53a5 5 0 0 1-5-5V52.472a3 3 0 0 1 .317-1.342l5.236-10.472zm2.683.342a1 1 0 0 0-.894.553l-5.236 10.472a1 1 0 0 0-.106.447V75a3 3 0 0 0 3 3h29a3 3 0 0 0 3-3V52.54a1 1 0 0 0-.136-.503l-6.149-10.54a1 1 0 0 0-.864-.497H56.236z" fill="#0BA14B"/>
    <path fill-rule="evenodd" clip-rule="evenodd" d="M86 53H49v-2h37v2z" fill="#0BA14B"/>
    <path fill-rule="evenodd" clip-rule="evenodd" d="M69.949 39.684L74 51.838V58a3 3 0 0 1-3 3h-7a3 3 0 0 1-3-3v-6.123l3.03-12.12 1.94.486L63 52.123V58a1 1 0 0 0 1 1h7a1 1 0 0 0 1-1v-5.838l-3.949-11.846 1.898-.632z" fill="#0BA14B"/>
    <path fill-rule="evenodd" clip-rule="evenodd" d="M79.5 26c-.476 0-.928.095-1.34.265l-.766-1.847A5.486 5.486 0 0 1 79.5 24h1.875v2H79.5zm9.375 0h-3.75v-2h3.75v2zm7.5 0h-3.75v-2h3.75v2zM102 26h-1.875v-2H102a1 1 0 0 1 0 2zm-25.735 2.16c-.17.412-.265.864-.265 1.34 0 .476.095.928.265 1.34l-1.847.766A5.486 5.486 0 0 1 74 29.5c0-.744.148-1.456.418-2.106l1.847.767zm1.895 4.575c.412.17.864.265 1.34.265h2v2h-2a5.486 5.486 0 0 1-2.106-.418l.766-1.847zM85.5 33h4v2h-4v-2zm8 0h4v2h-4v-2zm8 0h2c.777 0 1.545.038 2.303.111l-.194 1.991A21.758 21.758 0 0 0 103.5 35h-2v-2zm8.824 1.006a23.343 23.343 0 0 1 4.256 1.765l-.944 1.763a21.364 21.364 0 0 0-3.892-1.614l.58-1.914zm8.085 4.328a23.64 23.64 0 0 1 3.257 3.257l-1.545 1.27a21.583 21.583 0 0 0-2.982-2.982l1.27-1.545zm5.82 7.085a23.39 23.39 0 0 1 1.765 4.257l-1.914.58a21.402 21.402 0 0 0-1.614-3.892l1.763-.944zm2.66 8.778a24.02 24.02 0 0 1 0 4.606l-1.991-.194a21.937 21.937 0 0 0 0-4.218l1.991-.194zm-.895 9.127a23.39 23.39 0 0 1-1.765 4.257l-1.763-.945a21.402 21.402 0 0 0 1.614-3.892l1.914.58zm-4.328 8.085a23.64 23.64 0 0 1-3.257 3.257l-1.27-1.545a21.583 21.583 0 0 0 2.982-2.982l1.545 1.27zm-7.086 5.82a23.343 23.343 0 0 1-4.256 1.765l-.58-1.914a21.364 21.364 0 0 0 3.892-1.614l.944 1.763zm-8.777 2.66c-.758.073-1.526.111-2.303.111h-1.562v-2h1.562c.712 0 1.416-.035 2.109-.102l.194 1.99zM90 79a1 1 0 0 1 1-1h1.563v2H91a1 1 0 0 1-1-1zm8.813 1h-3.126v-2h3.126v2z" fill="#0BA14B"/>
</svg>
